X:1
T:The Call of the Christ
T:Charles Hutchinson Gabriel.
T:The Call of the Christ
T:Public Domain
T:Public Domain
T:Public Domain
C:Charles Hutchinson Gabriel.
Z:Public Domain
%%score ( 1 2 ) ( 3 4 )
L:1/8
M:6/8
K:Eb
V:1 treble 
V:2 treble 
V:3 bass 
V:4 bass 
V:1
 [EG] | [GB]>[GB][GB] [GB]2 [GB] | [Ge]2 [Ac] [GB]3 | [EG]2 [DF] E2 [DF] | [EB]3- [EB]2 [EG] | %5
w: 1.~The|call of the Christ rings|out to- day,|Who will make re-|For * la-|
w: 2.~The|call of the Christ rings|sweet and clear,|Who will make re-|Thy * call-|
w: 3.~The|call of the Christ is|now for you,|Will you make re-|I’m * wait-|
 [DA]>[DA][DA] [FA][EG][DF] | [EG]2 [Ec] [EB]2 [EG] | [DA]>[DA][DA] [FA][EG][DF] | %8
w: bor, or serv- ice, or bat-|tle fray, Or seek-|ing the lost who have gone|
w: ing, O Mas- ter, to- day|I hear, And glad-|ly will fol- low Thee, far|
w: ing, O Mas- ter, Thy will|to do; Count me|on the side of the brave|
 [EG]2 [Ec] [EB]2 [EB] | [E=A]>[EG][EF] [EA][DB][Fc] | [Fd]2 [Fd] [Ee]3 | [Fd]3 [Ec]3 | %12
w: a- stray, O Mas-|ter, I’m read- y to go|or stay— Here|am I!|
w: or near; With Thee|as my Lead- er, no harm|I fear, Here|am I!|
w: and true, I’ll fol-|low Thee all of the bat-|tle thro’, Here|am I!|
 ([DB-]3 [AB]3) |:"^Refrain" [GB]2 [Ge] [Ge]2 [Gc] | [Ad]3 [Ad]3 | [FA]2 [FB] [Ad]2 [Ac] | %16
w: Here *|am I for serv-|ice, what-|so- e’er it be;|
w: ||||
w: I *|have heard Thy sum-|mons from|dark Cal- va- ry,|
 [GB]3- [GB]2 z | [EG]2 [EB] [=Ec]2 [EG] | [GB]3 [FA]3 | [Fd]2 [Ac] [GB]2 [FA] | [EG]3- [EG]2 z :| %21
w: I *|am wait- ing or-|ders, Mas-|ter, now from Thee;||
w: |||||
w: ~ *|~ ~ ~ ~|~ ~|~ ~ ~ ~|And *|
 [Ge]2 B [Ad]2 [Ac] | [EB]3 [EA]3 | [EG]2 [EG] [DF]2 [DF] | E3- E2 |] %25
w: ||||
w: ||||
w: I glad- ly an-|“Mas- ter,|here am I!” *||
V:2
 x | x6 | x6 | x3 E2 x | x6 | x6 | x6 | x6 | x6 | x6 | x6 | x6 | x6 |: x6 | x6 | x6 | x6 | x6 | %18
w: |||ply?|||||||||||||||
w: |||ply?|||||||||||||||
w: |||ply?|||||||||||||||
 x6 | x6 | x6 :| x2 B x3 | x6 | x6 | E3- E2 |] %25
w: |||||||
w: |||||||
w: |||swer,||||
V:3
 [E,B,] | [E,E]>[E,E][E,E] [E,E]2 [E,E] | [E,B,]2 [E,C] [E,E]3 | [E,B,]2 [A,B,] [G,B,]2 B, | %4
 [E,G,]3- [E,G,]2 [E,B,] | [F,B,]>[F,B,][F,B,] [B,,B,][B,,B,][B,,B,] | %6
 [E,B,]2 [E,A,] [E,G,]2 [E,B,] | [F,B,]>[F,B,][F,B,] [B,,B,][B,,B,][B,,B,] | %8
 [E,B,]2 [E,A,] [E,G,]2 [E,G,] | [F,C]>[F,B,][F,=A,] [F,C][F,B,][F,A,] | B,2 [A,B,] G,2 _G, | %11
 [F,B,]3 [F,=A,]3 | ([B,,-B,]3 [B,,D]3) |: [E,E]2 [E,B,] [E,B,]2 [E,B,] | [F,B,]3 [F,B,]3 | %15
 [B,D]2 [B,D] [B,,B,]2 [B,,D] | [E,E]3- [E,E]2 z | [E,B,]2 [E,G,] [C,G,]2 [C,C] | [F,C]3 [F,C]3 | %19
 [B,,B,]2 [B,,B,] [B,,B,]2 [B,,B,] | [E,B,]3- [E,B,]2 z :| [E,B,]2 [G,E] [A,E]2 [A,E] | %22
 [G,E]3 [A,C]3 | B,2 B, [B,,A,]2 [B,,A,] | [E,G,]3- [E,G,]2 |] %25
V:4
 x | x6 | x6 | x5 B, | x6 | x6 | x6 | x6 | x6 | x6 | B,2 B,3 x | x6 | x6 |: x6 | x6 | x6 | x6 | %17
 x6 | x6 | x6 | x6 :| x6 | x6 | B,2 B, x3 | x5 |] %25

